icons/funnel-outline.svg

<svg xmlns="http://www.w3.org/2000/svg" width="24" height="24" viewBox="0 0 24 24">
  <path d="M20,3 L4,3 C3.44771525,3 3,3.44771525 3,4 L3,8 L3.00772348,8.1241411 C3.04351118,8.41043031 3.20187597,8.66976774 3.4452998,8.83205029 L9,12.535 L9,21 C9,21.8240453 9.94076375,22.2944272 10.6,21.8 L14.6,18.8 L14.6894833,18.7243131 C14.8865388,18.5367615 15,18.2754126 15,18 L15,12.535 L20.5547002,8.83205029 C20.8328989,8.64658452 21,8.33435319 21,8 L21,4 C21,3.44771525 20.5522847,3 20,3 Z M19,5 L19,7.464 L13.4452998,11.1679497 L13.3462924,11.2432371 C13.1279368,11.431819 13,11.707441 13,12 L13,17.5 L11,19 L11,12 L10.9922765,11.8758589 C10.9564888,11.5895697 10.798124,11.3302323 10.5547002,11.1679497 L5,7.464 L5,5 L19,5 Z"/>
</svg>

<svg xmlns="http://www.w3.org/2000/svg" viewBox="0 0 24 24">
  <path d="M20 3H4a1 1 0 0 0-1 1v4.12a1 1 0 0 0 .45.71L9 12.53V21a1 1 0 0 0 1.6.8l4-3 .09-.08A1 1 0 0 0 15 18v-5.46l5.55-3.7A1 1 0 0 0 21 8V4a1 1 0 0 0-1-1zm-1 2v2.46l-5.55 3.7-.1.08A1 1 0 0 0 13 12v5.5L11 19v-7.12a1 1 0 0 0-.45-.71L5 7.47V5h14z"/>
</svg>
